X: 1
T: Bev\"aringarnas Marsch
T: H\"arjedals bef\"aringsmarsch
O" H\"arjedalen
R: march
S: http://www.folksweden.com/files/Bev_ringarnas_Marsch.pdf
Z: 2021 John Chambers <jc:trillian.mit.edu>
M: 4/4
L: 1/8
K: Dm
|:\
d2d^c A2Ac | e4 g3e | f2ag e2gf | d2d^c A4 |\
d2d^c A2Ac | e4 g3e | fafd ege^c | d2d2 d4 :|
|:\
f2a2 c2g2 | f4 a3e | f2ag e2gf | d2d^c A4 |\
d2d^c A2Ac | e4 g3e | fafd ege^c | d2d2 d4 :|
